resources/svg/discount.svg

<svg xmlns="http://www.w3.org/2000/svg" viewBox="0 0 15 15" fill="currentColor"><path fill-rule="evenodd" clip-rule="evenodd" d="M6.4479 0.435794L5.31888 1.56481C5.22738 1.65631 5.10328 1.70772 4.97389 1.70772H3.19561C2.37387 1.70772 1.70772 2.37387 1.70772 3.19561V4.97389C1.70772 5.10328 1.65631 5.22738 1.56481 5.31888L0.435794 6.4479C-0.145264 7.02896 -0.145265 7.97104 0.435794 8.5521L1.56481 9.68112C1.65631 9.77262 1.70772 9.89672 1.70772 10.0261V11.8044C1.70772 12.6261 2.37387 13.2923 3.19561 13.2923H4.97389C5.10328 13.2923 5.22738 13.3437 5.31888 13.4352L6.4479 14.5642C7.02896 15.1453 7.97104 15.1453 8.5521 14.5642L9.68112 13.4352C9.77262 13.3437 9.89672 13.2923 10.0261 13.2923H11.8044C12.6261 13.2923 13.2923 12.6261 13.2923 11.8044V10.0261C13.2923 9.89672 13.3437 9.77262 13.4352 9.68112L14.5642 8.5521C15.1453 7.97104 15.1453 7.02896 14.5642 6.4479L13.4352 5.31888C13.3437 5.22738 13.2923 5.10328 13.2923 4.97389V3.19561C13.2923 2.37387 12.6261 1.70772 11.8044 1.70772H10.0261C9.89672 1.70772 9.77262 1.65631 9.68112 1.56481L8.5521 0.435794C7.97104 -0.145264 7.02896 -0.145265 6.4479 0.435794ZM4.64648 9.64645L9.64648 4.64645L10.3536 5.35356L5.35359 10.3536L4.64648 9.64645ZM5 5V6H6V5H5ZM9 10H10V9H9V10Z" fill="black"/></svg>

<svg xmlns="http://www.w3.org/2000/svg" viewBox="0 0 15 15" fill="currentColor"><path fill-rule="evenodd" clip-rule="evenodd" d="M6.448.436l-1.13 1.129a.488.488 0 01-.344.143H3.196c-.822 0-1.488.666-1.488 1.488v1.778a.49.49 0 01-.143.345L.435 6.448a1.488 1.488 0 000 2.104l1.13 1.13a.488.488 0 01.143.344v1.778c0 .822.666 1.488 1.488 1.488h1.778a.49.49 0 01.345.143l1.129 1.13a1.488 1.488 0 002.104 0l1.13-1.13a.488.488 0 01.344-.143h1.778c.822 0 1.488-.666 1.488-1.488v-1.778a.49.49 0 01.143-.345l1.13-1.129a1.488 1.488 0 000-2.104l-1.13-1.13a.488.488 0 01-.143-.344V3.196c0-.822-.666-1.488-1.488-1.488h-1.778a.488.488 0 01-.345-.143L8.552.435a1.488 1.488 0 00-2.104 0zm-1.802 9.21l5-5 .708.708-5 5-.708-.708zM5 5v1h1V5H5zm4 5h1V9H9v1z" fill="currentColor"/></svg>
